cssgg/pill.svg

<svg
  width="24"
  height="24"
  viewBox="0 0 24 24"
  fill="none"
  xmlns="http://www.w3.org/2000/svg"
>
  <path
    fill-rule="evenodd"
    clip-rule="evenodd"
    d="M12.6569 2.75736C15 0.414213 18.799 0.414214 21.1421 2.75736C23.4853 5.1005 23.4853 8.8995 21.1421 11.2426L11.2426 21.1421C8.89949 23.4853 5.1005 23.4853 2.75736 21.1421C0.414214 18.799 0.414213 15 2.75736 12.6569L12.6569 2.75736ZM19.7279 9.82843L15.4853 14.0711L9.82843 8.41421L14.0711 4.17157C15.6332 2.60948 18.1658 2.60948 19.7279 4.17157C21.29 5.73367 21.29 8.26633 19.7279 9.82843Z"
    fill="currentColor"
  />
</svg>

<svg viewBox="0 0 24 24" xmlns="http://www.w3.org/2000/svg"><path fill-rule="evenodd" d="M12.65 2.75c2.34-2.35 6.14-2.35 8.48 0 2.34 2.34 2.34 6.14 0 8.48l-9.9 9.89c-2.35 2.34-6.15 2.34-8.49 0 -2.35-2.35-2.35-6.15 0-8.49l9.89-9.9Zm7.07 7.07l-4.25 4.24L9.81 8.4l4.24-4.25c1.56-1.57 4.09-1.57 5.65 0 1.56 1.56 1.56 4.09 0 5.65Z"/></svg>
